X: 43599
T: Young Tom Ennis
R: jig
M: 6/8
K: Adorian
cBA B>cB|AGE G>AB|cBA Bed|BAA A2 B|
cBA B>cB|AGE GAB|cde ded|cAA A2:|
gfe age|dBG G2 e/f/|gfe agf|ef^g a2 e/f/|
gfe age|dBG G2 A/B/|cBA Bed|cAA A2:|

